icons/refund-line.svg

<svg viewBox="0 0 24 24" fill="currentColor" xmlns="http://www.w3.org/2000/svg">
    <path d="M20.0049 8V5H4.00488V8H20.0049ZM20.0049 10H4.00488V19H20.0049V10ZM3.00488 3H21.0049C21.5572 3 22.0049 3.44772 22.0049 4V20C22.0049 20.5523 21.5572 21 21.0049 21H3.00488C2.4526 21 2.00488 20.5523 2.00488 20V4C2.00488 3.44772 2.4526 3 3.00488 3ZM11.0049 14H17.0049V16H6.50488L11.0049 11.5V14Z"/>
</svg>

<svg xmlns="http://www.w3.org/2000/svg" viewBox="0 0 24 24">
    <g>
        <path fill="none" d="M0 0h24v24H0z"/>
        <path d="M20 8V5H4v3h16zm0 2H4v9h16v-9zM3 3h18a1 1 0 0 1 1 1v16a1 1 0 0 1-1 1H3a1 1 0 0 1-1-1V4a1 1 0 0 1 1-1zm8 11h6v2H6.5l4.5-4.5V14z"/>
    </g>
</svg>
